X: 22
T: Sonata in D major, L.56, K.281
C: Domenico Scarlatti
%%abc-version 2.0
%%abcx-abcm2ps-target-version 5.9.1 (29 Sep 2008)
%%abc-creator hum2abc beta
%%abcx-conversion-date 2021/06/28 10:15:41
%%abc-copyright 2021 Craig Stuart Sapp
%%abc-edited-by Craig Stuart Sapp
%%abc-edited-by Craig Stuart Sapp
%%abcx-initial-encoding-date 2005/06/21
%%humdrum-veritas 2174223095
%%humdrum-veritas-data 4014131295
%%linebreak <none>
%%barnumbers 0
L: 1/8
M: 3/4
N: Derived from L056K281.krn
Q: "Andante ([quarter]=126)" 1/4=126
%%staves {1 2}
V: 1 clef=treble
V: 2 clef=bass
K: D
[V:1] d2afdA | 
[V:2] [D,,6D,6]- | 
[V:1] BgceA[eg] | 
[V:2] [D,,6D,6] | 
[V:1] [d2f2]fdAF | 
[V:2] [D,,6D,6]- | 
[V:1] GecGE[Gc] | 
[V:2] [D,,6D,6] | 
[V:1] [F2d2]afdA | 
[V:2] [D,,6D,6]- | 
[V:1] BgceA[eg] | 
[V:2] [D,,6D,6] | 
[V:1] [d2f2]fdAF | 
[V:2] [D,,6D,6]- | 
[V:1] GecGE[Gc] | 
[V:2] [D,,6D,6] | 
[V:1] [F2d2]a3d | 
[V:2] [D,,2D,2]FDGE | 
[V:1] {/e} dc2<g2e | 
[V:2] A2B,G,CA, | 
[V:1] ef2<a2d | 
[V:2] D2FDGE | 
[V:1] {/e} dc2<g2e | 
[V:2] A2B,G,CA, | 
[V:1] ef FD^GE | 
[V:2] D2.D2.D2 | 
[V:1] AFB^GcA | 
[V:2] .C2.C2.C2 | 
[V:1] d2^GEAF | 
[V:2] .B,2.E2.E2 | 
[V:1] B^GcAdB | 
[V:2] .D2.D2.D2 | 
[V:1] e2AFB^G | 
[V:2] .C2.F2.F2 | 
[V:1] cAdBec | 
[V:2] .E2.E2.E2 | 
[V:1] fd^geaA | 
[V:2] .D2D2C2 | 
[V:1] de/f/ edcB | 
[V:2] B,2^G,2E,2 | 
[V:1] c>de2A2- | 
[V:2] A,,2AEFC | 
[V:1] A2!trill!d3c/B/ | 
[V:2] DA,B,F,^G,E, | 
[V:1] c>de2A2- | 
[V:2] A,2AEFC | 
[V:1] A2!trill!d3c/B/ | 
[V:2] DA,B,F,^G,E, | 
[V:1] c2e^GAB | 
[V:2] A,2EB,C^G, | 
[V:1] c3d/e/ dc | 
[V:2] A,E,F,C,D,A,, | 
[V:1] B2e^GAB | 
[V:2] E,2EB,C^G, | 
[V:1] c3d/e/ dc | 
[V:2] A,E,F,C,D,A,, | 
[V:1] B2^GEAF | 
[V:2] E,2.E2.E2 | 
[V:1] B^GcAdB | 
[V:2] .D2.D2.D2 | 
[V:1] e2AFB^G | 
[V:2] .C2.F2.F2 | 
[V:1] cAdBec | 
[V:2] .E2.E2.E2 | 
[V:1] fd^geaA | 
[V:2] .D2D2C2 | 
[V:1] Bc/d/ cBA^G | 
[V:2] D2E2E,2 | 
[V:1] A2e3f | 
[V:2] A,2CA,DB, | 
[V:1] A^G2<d2d | 
[V:2] E2F,D,^G,E, | 
[V:1] {/e} dc2<e2f | 
[V:2] A,2CA,DB, | 
[V:1] A^G2<d2d | 
[V:2] E2F,D,^G,E, | 
[V:1] .c^g2a2B- | 
[V:2] [A,2C2][B,2D2][C2E2] | 
[V:1] Bc/d/ cBAB | 
[V:2] D2E2E,2 | 
[V:1] .c^g2a2B- | 
[V:2] [A,2C2][B,2D2][C2E2] | 
[V:1] Bc/d/ cBAB |[1 
[V:2] D2E2E,2 | 
[V:1] A2z2z2 :|][2 
[V:2] A,B,A,=G,F,E, :|]  
[V:1] A6 ]|: 
[V:2] A,6 ]|:  
[V:1] A2cAdB | 
[V:2] A,,2[K:clef=treble].A2.A2 | 
[V:1] ecfdge | 
[V:2] .G2.G2.G2 | 
[V:1] a2^dBec | 
[V:2] .F2.B2.B2 | 
[V:1] f^dgeaf | 
[V:2] .A2.A2.A2 | 
[V:1] bgeB=c=c' | 
[V:2] .G2G2A2 | 
[V:1] bf^dBea | 
[V:2] [B,2B2][B,2B2][=C2A2] | 
[V:1] bf^dB=c=c' | 
[V:2] [B,2B2][B,2B2][A,2A2] | 
[V:1] bf^dBea | 
[V:2] [B,2B2][B,2B2][=C2A2][K:clef=bass] | 
[V:1] ^g4-ga & ^g=dBe=f2- | 
[V:2] [B,2D2][B,2D2][B,2D2] | 
[V:1] b6- & =fde=cdB | 
[V:2] [^G,2D2][G,2D2][G,2D2] | 
[V:1] bba^f=ge & =c6- | 
[V:2] [A,2=C2][B,2D2][C2E2] | 
[V:1] f6- & =c=cdBcA | 
[V:2] D6 & D,2E,2F,2 | 
[V:1] fdgfed & B2z2z2 | 
[V:2] [G,2B,2][A,2=C2][B,2D2] | 
[V:1] e=cdBcA | 
[V:2] [=C2E2]F2D2 | 
[V:1] B2d2G2- | 
[V:2] G,2GDEB, | 
[V:1] G2!trill!=c3B/A/ | 
[V:2] =CG,A,E,F,D, | 
[V:1] B>=cd2G2- | 
[V:2] G,2GDEB, | 
[V:1] G2!trill!=c3B/A/ | 
[V:2] =CG,A,E,F,D, | 
[V:1] B2dFGA | 
[V:2] G,2DA,B,F, | 
[V:1] B3=c/d/ cB | 
[V:2] G,D,E,B,,=C,G,, | 
[V:1] A2dFGA | 
[V:2] D,2DA,B,F, | 
[V:1] x4!accent!e2- & B3^c/d/ AG | 
[V:2] G,D,E,B,,^C,A,, | 
[V:1] eedca2- & F2x2BA | 
[V:2] D,2E,2F,2 | 
[V:1] aagfb2 & B2x2ed | 
[V:2] G,2A,2B,2 | 
[V:1] cB/A/a3d | 
[V:2] A,2FDGE | 
[V:1] {/e} dc2<g2g | 
[V:2] A2B,G,CA, | 
[V:1] {/a} gf2<a2d | 
[V:2] D2F,D,G,E, | 
[V:1] {/e} dc2<g2g | 
[V:2] A,2B,,G,,C,A,, | 
[V:1] fc'2d'2e- | 
[V:2] [D,2F,2][E,2G,2][F,2A,2] | 
[V:1] ef/g/ fedc | 
[V:2] G,2A,2A,,2 | 
[V:1] d2a3d | 
[V:2] D,2FDGE | 
[V:1] {/e} dc2<g2g | 
[V:2] A2B,G,CA, | 
[V:1] {/a} gf2<a2d | 
[V:2] D2F,D,G,E, | 
[V:1] {/e} dc2<G2G | 
[V:2] A,2B,,G,,C,A,, | 
[V:1] .Fc2d2E- | 
[V:2] [D,2F,2][E,2G,2][F,2A,2] | 
[V:1] EF/G/ FEDE | 
[V:2] G,2A,2A,,2 | 
[V:1] .Fc2d2E- | 
[V:2] [D,2F,2][E,2G,2][F,2A,2] | 
[V:1] EF/G/ FEDC | 
[V:2] G,2A,2A,,2 | 
[V:1] D6 :|]  
[V:2] [D,,6D,6] :|]  


